X: 9059
T: Da Full Rigged Ship
R: jig
M: 6/8
K: Aminor
|e2 a aea|aea aba|e2 ^f g2 g|gag ^fed|
e2 a aea|aea aba|gfe dcB|ABA A3:|
e3 edB|A2 B c3|B2 G B2 G|Bcd E3|
e3 edB|A2 B c2 d|efe dcB|ABA A3:|
~E3 ~E3|~E3 c2G|~E3 E2 D|E2 F GED|
~E3 ~E3|~E3 c2 d|ege dcB|ABA A3:|

